source/img/services/services-nav/site-icon.svg

<svg width="33" height="33" viewBox="0 0 33 33" fill="none" xmlns="http://www.w3.org/2000/svg">
<path d="M14.1006 27.2954L14.3402 24.7791H18.8935L19.1332 27.2954H14.1006Z" fill="#AAAAAA"/>
<path d="M3.40625 22.2625H29.1984V24.7788H3.40625V22.2625Z" fill="#AAAAAA"/>
<path fill-rule="evenodd" clip-rule="evenodd" d="M3.83642 7.26793C3.65422 7.26793 3.50652 7.41631 3.50652 7.59935V22.1286H29.0984V7.59935C29.0984 7.41631 28.9507 7.26793 28.7685 7.26793H3.83642ZM3.83642 6.5354H28.7685C29.3535 6.5354 29.8276 7.01175 29.8276 7.59935V24.3437C29.8276 24.9313 29.3535 25.4077 28.7685 25.4077H8.40615C8.2048 25.4077 8.04157 25.2437 8.04157 25.0414C8.04157 24.8391 8.2048 24.6752 8.40615 24.6752H28.7685C28.9507 24.6752 29.0984 24.5268 29.0984 24.3437V22.8611H3.50652V24.3437C3.50652 24.5268 3.65422 24.6752 3.83642 24.6752H6.56368C6.76503 24.6752 6.92826 24.8391 6.92826 25.0414C6.92826 25.2437 6.76503 25.4077 6.56368 25.4077H3.83642C3.25151 25.4077 2.77734 24.9313 2.77734 24.3437V7.59935C2.77734 7.35927 2.8565 7.13776 2.99002 6.95973C3.06075 6.86542 3.14673 6.78331 3.24428 6.71711C3.41331 6.60239 3.61708 6.5354 3.83642 6.5354Z" fill="#0A3D76"/>
<path fill-rule="evenodd" clip-rule="evenodd" d="M13.7441 24.7791H19.49L19.5833 25.8566C19.5991 26.0385 19.446 26.1973 19.2413 26.2113C19.0366 26.2253 18.858 26.0892 18.8422 25.9073L18.8017 25.4396H14.4324L14.2744 27.2639H18.9597L18.9331 26.9566C18.9173 26.7747 19.0705 26.616 19.2751 26.602C19.4798 26.588 19.6585 26.724 19.6742 26.9059L19.7624 27.9244H13.4717L13.7441 24.7791Z" fill="#0A3D76"/>
<path fill-rule="evenodd" clip-rule="evenodd" d="M12.2134 27.6097C12.2134 27.436 12.3782 27.2952 12.5815 27.2952H20.0232C20.2266 27.2952 20.3914 27.436 20.3914 27.6097C20.3914 27.7834 20.2266 27.9242 20.0232 27.9242H12.5815C12.3782 27.9242 12.2134 27.7834 12.2134 27.6097Z" fill="#0A3D76"/>
</svg>

<svg width="33" height="33" fill="none" xmlns="http://www.w3.org/2000/svg"><path d="M14.1 27.295l.24-2.516h4.553l.24 2.516h-5.032zM3.406 22.262h25.792v2.517H3.406v-2.517z" fill="#AAA"/><path fill-rule="evenodd" clip-rule="evenodd" d="M3.836 7.268a.33.33 0 00-.33.331v14.53h25.592V7.599a.33.33 0 00-.33-.331H3.837zm0-.733h24.932c.585 0 1.06.477 1.06 1.064v16.745c0 .587-.474 1.064-1.06 1.064H8.407a.365.365 0 010-.733h20.362a.33.33 0 00.33-.331V22.86H3.507v1.483a.33.33 0 00.33.331h2.727a.365.365 0 010 .732H3.836a1.062 1.062 0 01-1.059-1.063V7.599a1.062 1.062 0 011.06-1.064z" fill="#0A3D76"/><path fill-rule="evenodd" clip-rule="evenodd" d="M13.744 24.78h5.746l.093 1.077c.016.181-.137.34-.342.354-.204.014-.383-.122-.399-.304l-.04-.467h-4.37l-.158 1.824h4.686l-.027-.307c-.016-.182.137-.341.342-.355.205-.014.384.122.4.304l.087 1.018h-6.29l.272-3.145z" fill="#0A3D76"/><path fill-rule="evenodd" clip-rule="evenodd" d="M12.213 27.61c0-.174.165-.315.369-.315h7.441c.204 0 .368.141.368.315 0 .173-.164.314-.368.314h-7.441c-.204 0-.369-.14-.369-.314z" fill="#0A3D76"/></svg>
